X:24
T: Die zehnte Tochter
N: Q0094
O: Suedosteuropa, Jugoslawien, Gottschee, Koprivnik / Nesseltal
N: Einige der folgenden Zeilen werden dreimal wiederholt. Verzierungen
N: (Vorschlaege) .
R: Ballade, mythologisch, Vertreibung
M: 3/4
L: 1/8
K: G
GB | d4B2 | A2A2cA | G4GB | A4
FA | c4A2 | G4AG | F4A2 | G4
FA | c4A2 | G4AG | F4A2 | G4

